!!!COM: Leoš [Leo Eugen] Janáček
!!!OTL: [T147_Jan-w35p2-3m1h1m1-6]
**kern	**dynam	**kern	**dynam	**kern	**dynam	**kern	**dynam	**kern	**dynam	**kern	**dynam	**kern	**dynam	**kern	**dynam	**kern	**dynam	**kern	**dynam
*grp:A	*grp:A	*grp:A	*grp:A	*grp:B	*grp:B	*grp:A	*grp:A	*grp:B	*grp:B	*grp:A	*grp:A	*grp:A	*grp:A	*grp:A	*grp:A	*grp:A	*grp:A	*grp:A	*grp:A
*part10	*part10	*part9	*part9	*part8	*part8	*part7	*part7	*part6	*part6	*part5	*part5	*part4	*part4	*part3	*part3	*part2	*part2	*part1	*part1
*staff10	*staff10	*staff9	*staff9	*staff8	*staff8	*staff7	*staff7	*staff6	*staff6	*staff5	*staff5	*staff4	*staff4	*staff3	*staff3	*staff2	*staff2	*staff1	*staff1
*I"Contrabass	*I"Contrabass	*I"Violoncello	*I"Violoncello	*I"Viola	*I"Viola	*I"Violin II	*I"Violin II	*I"Violin I	*I"Violin I	*I"Violin Solo	*I"Violin Solo	*I"Tubular Bells	*I"Tubular Bells	*I"Bassoon I.II.	*I"Bassoon I.II.	*I"Clarinet in Bb I.II.	*I"Clarinet in Bb I.II.	*I"Flute I.II.	*I"Flute I.II.
*I'Cb.	*	*I'Vc.	*	*I'Vla.	*	*I'Vln. II	*	*I'Vln. I	*	*I'Vln.	*	*I'Tub. B.	*	*I'Bsn.	*	*I'Cl.	*	*I'Fl.	*
!!pagebreak:original
*clefF4	*	*clefF4	*	*clefC3	*	*clefG2	*	*clefG2	*	*clefG2	*	*clefF4	*	*clefF4	*	*clefG2	*	*clefG2	*
*ITrd7c12	*	*	*	*	*	*	*	*	*	*	*	*	*	*	*	*ITrd1c2	*	*	*
*k[]	*	*k[]	*	*k[]	*	*k[]	*	*k[]	*	*k[]	*	*k[]	*	*k[]	*	*k[b-e-]	*	*k[]	*
*	*	*	*	*	*	*	*	*	*	*	*	*	*	*	*	*	*	*	*
*M9/16	*	*M9/16	*	*M9/16	*	*M9/16	*	*M9/16	*	*M9/16	*	*M9/16	*	*M9/16	*	*M9/16	*	*M9/16	*
=1	=1	=1	=1	=1	=1	=1	=1	=1	=1	=1	=1	=1	=1	=1	=1	=1	=1	=1	=1
!	!	!	!	!	!	!	!	!	!	!	!	!	!	!	!	!	!	!LO:TX:a:B:t=rit.	!
8.C#X~L)	ff	8.C#X~L	ff	16f#XLL 16a#X	ff	8.f#XL	ff	16ff#XLL 16aa#X	ff	16%9r	.	16%9r	.	16%9r	.	16%9r	.	16%9r	.
.	.	.	.	16f# 16a#	.	.	.	16ff# 16aa#	.	.	.	.	.	.	.	.	.	.	.
.	.	.	.	16f#JJ 16a#	.	.	.	16ff#JJ 16aa#	.	.	.	.	.	.	.	.	.	.	.
[8.C#~	.	[8.C#~	.	16f#LL 16a#	.	[8.f#~	.	16ff#LL 16aa#	.	.	.	.	.	.	.	.	.	.	.
.	.	.	.	16f# 16a#	.	.	.	16ff# 16aa#	.	.	.	.	.	.	.	.	.	.	.
.	.	.	.	16f#JJ 16a#	.	.	.	16ff#JJ 16aa#	.	.	.	.	.	.	.	.	.	.	.
8.C#~J]	.	8.C#~J]	.	16f#LL 16a#	.	8.f#~J]	.	16ff#LL 16aa#	.	.	.	.	.	.	.	.	.	.	.
.	.	.	.	16f# 16a#	.	.	.	16ff# 16aa#	.	.	.	.	.	.	.	.	.	.	.
.	.	.	.	16f#JJ 16a#	.	.	.	16ff#JJ 16aa#	.	.	.	.	.	.	.	.	.	.	.
!!LO:REH:t=1
=2	=2	=2	=2	=2	=2	=2	=2	=2	=2	=2	=2	=2	=2	=2	=2	=2	=2	=2	=2
!	!	!	!	!	!	!	!	!	!	!	!	!	!	!	!	!	!	!LO:TX:t=[eighth-dot]=47	!
8.C#X~L	p	8.C#X~L	p	16f#XLL 16a#X	p	8.f#XL	p	16ff#XLL 16aa#X	p	64%3r	.	16%9r	.	16%9r	.	16%9r	.	16%9r	.
!	!	!	!	!	!	!	!	!	!	!LO:TX:b:i:t=espr.	!	!	!	!	!	!	!	!	!
.	.	.	.	.	.	.	.	.	.	(64%3ddd-XLLL	f	.	.	.	.	.	.	.	.
.	.	.	.	16f# 16a#	.	.	.	16ff# 16aa#	.	.	.	.	.	.	.	.	.	.	.
.	.	.	.	.	.	.	.	.	.	64%3bb-X	.	.	.	.	.	.	.	.	.
.	.	.	.	16f#JJ 16a#	.	.	.	16ff#JJ 16aa#	.	.	.	.	.	.	.	.	.	.	.
.	.	.	.	.	.	.	.	.	.	64%3ccc-XJJJ	<	.	.	.	.	.	.	.	.
[8.C#~	.	[8.C#~	.	16f#LL 16a#	.	[8.f#~	.	16ff#LL 16aa#	.	8.ddd-L	.	.	.	.	.	.	.	.	.
.	.	.	.	16f# 16a#	.	.	.	16ff# 16aa#	.	.	.	.	.	.	.	.	.	.	.
.	.	.	.	16f#JJ 16a#	.	.	.	16ff#JJ 16aa#	.	.	.	.	.	.	.	.	.	.	.
8.C#~J]	.	8.C#~J]	.	16f#LL 16a#	.	8.f#~J]	.	16ff#LL 16aa#	.	[8.aaa-XJ	.	.	.	.	.	.	.	.	.
.	.	.	.	16f# 16a#	.	.	.	16ff# 16aa#	.	.	.	.	.	.	.	.	.	.	.
.	.	.	.	16f#JJ 16a#	.	.	.	16ff#JJ 16aa#	.	.	.	.	.	.	.	.	.	.	.
=3	=3	=3	=3	=3	=3	=3	=3	=3	=3	=3	=3	=3	=3	=3	=3	=3	=3	=3	=3
8.C#X~L	.	8.C#X~L	.	16f#XLL 16a#X	.	8.f#XL	.	16ff#XLL 16aa#X	.	8.aaa-L]	.	16%9r	.	16%9r	.	16%9r	.	16%9r	.
.	.	.	.	16f# 16a#	.	.	.	16ff# 16aa#	.	.	.	.	.	.	.	.	.	.	.
.	.	.	.	16f#JJ 16a#	.	.	.	16ff#JJ 16aa#	.	.	.	.	.	.	.	.	.	.	.
[8.C#~	.	[8.C#~	.	16f#LL 16a#	.	[8.f#~	.	16ff#LL 16aa#	.	(8.aaa-X	[ >	.	.	.	.	.	.	.	.
.	.	.	.	16f# 16a#	.	.	.	16ff# 16aa#	.	.	.	.	.	.	.	.	.	.	.
.	.	.	.	16f#JJ 16a#	.	.	.	16ff#JJ 16aa#	.	.	.	.	.	.	.	.	.	.	.
8.C#~J_	.	8.C#~J]	.	16f#LL 16a#	.	8.f#~J]	.	16ff#LL 16aa#	.	8.ggg-XJ))	]]	.	.	.	.	.	.	.	.
.	.	.	.	16f# 16a#	.	.	.	16ff# 16aa#	.	.	.	.	.	.	.	.	.	.	.
.	.	.	.	[16f#JJ [16a#	.	.	.	[16ff#JJ [16aa#	.	.	.	.	.	.	.	.	.	.	.
!!pagebreak:original
=4	=4	=4	=4	=4	=4	=4	=4	=4	=4	=4	=4	=4	=4	=4	=4	=4	=4	=4	=4
!	!	!	!	!	!	!	!	!	!	!	!	!	!	!LO:TX:a:t=a2	!	!LO:TX:a:t=a2	!	!LO:TX:a:t=a2	!
8.C#~L]	<	16r	.	16f#KL] 16a#]	<	(16ff#XLL	<	16ff#KL] 16aa#]	<	(8.ggg-X~L	<	16%9r	.	([8.G-XL	mf <	([8.g-XL	mf <	([8.gg-XL	mf <
.	.	(16c#XLL	<	8f#X 8a#X	.	16a#X	.	8ff#X 8aa#X	.	.	.	.	.	.	.	.	.	.	.
.	.	16A#XJJ	.	.	.	16ff#	.	.	.	.	.	.	.	.	.	.	.	.	.
[8.FF#X~	.	16A#LL	.	8f# 8a#	.	16a#	.	8ff# 8aa#	.	8.ggg-~	.	.	.	8.G-]	.	8.g-]	.	8.gg-]	.
.	.	16G#X	.	.	.	16ff#	.	.	.	.	.	.	.	.	.	.	.	.	.
.	.	16F#XJJ	.	8f# 8a#	.	16a#	.	8ff# 8aa#	.	.	.	.	.	.	.	.	.	.	.
8.FF#~J]	[	16F#LL	.	.	.	16ff#	.	.	.	8.ggg-~J)	[	.	.	8.A-XJ	.	8.a-XJ	.	8.aa-XJ	.
.	.	16C#X	.	8f#J 8a#	[	16a#	.	8ff#J 8aa#	[	.	.	.	.	.	.	.	.	.	.
.	.	[16FF#XJJ	[	.	.	16ff#JJ)	[	.	.	.	.	.	.	.	.	.	.	.	.
=5	=5	=5	=5	=5	=5	=5	=5	=5	=5	=5	=5	=5	=5	=5	=5	=5	=5	=5	=5
[8.FF#X~L	.	16FF#LL])	.	8.f#X~L 8.an	.	(16anLL	.	8.ff#X~L 8.aan	.	(8.ggg-XL	.	16r	.	8.AnL	.	8.aL	.	8.aanL	.
.	.	(16BB#X	.	.	.	16ff#X	.	.	.	.	.	8CL	f	.	.	.	.	.	.
.	.	[16DnJJ	.	.	.	16an	.	.	.	.	.	.	.	.	.	.	.	.	.
8.FF#~_	.	16DLL]	.	[8.f#~ [8.a#X	.	16ff#	.	[8.ff#~ [8.aa#X	.	[8.aaa-X	.	8Dn	.	[8.B-X	.	[8.b-	.	[8.bb-X	.
.	.	16C#X	.	.	.	16a#X	.	.	.	.	.	.	.	.	.	.	.	.	.
.	.	[16FF#XJJ)	.	.	.	16ff#	.	.	.	.	.	[16D-Xk	.	.	.	.	.	.	.
8.FF#~J]	.	16FF#LL]	.	8.f#J] 8.a#]	.	16a#	.	8.ff#J] 8.aa#]	.	8.aaa-J])	.	8.D-J]	.	8.B-J])	[	8.b-J])	[	8.bb-J])	[
.	.	(16BB#	.	.	.	16ff#	.	.	.	.	.	.	.	.	.	.	.	.	.
.	.	[16C#JJ	.	.	.	16a#JJ)	.	.	.	.	.	.	.	.	.	.	.	.	.
=6	=6	=6	=6	=6	=6	=6	=6	=6	=6	=6	=6	=6	=6	=6	=6	=6	=6	=6	=6
!	!	!	!	!	!	!	!	!	!	!	!	!	!	!	!	!	!	!LO:TX:a:t=accel.	!
[8.FF#X~L	mf <	16C#LL])	mf <	8.f#X~ 8.an	mf <	(16anLL	mf <	8.ff#X~L 8.aan	mf <	(8.ggg-XL	mf <	16r	.	(8.AL	mf <	(8.aL	mf <	(8.aaL	mf <
.	.	(16BB#X	.	.	.	16ff#X	.	.	.	.	.	8CL	.	.	.	.	.	.	.
.	.	[16DnJJ	.	.	.	16a	.	.	.	.	.	.	.	.	.	.	.	.	.
8.FF#~_	.	16DLL]	.	[8.f#~ [8.a#X	.	16ff#	.	[8.ff#~ [8.aa#X	.	[8.aaa-X	.	8Dn	.	[8.B-X	.	[8.b-	.	[8.bb-X	.
.	.	16C#X	.	.	.	16a#X	.	.	.	.	.	.	.	.	.	.	.	.	.
.	.	[16FF#XJJ	.	.	.	16ff#	.	.	.	.	.	[16D-Xk	.	.	.	.	.	.	.
8.FF#~J]	.	16FF#LL]	.	8.f#] 8.a#]	.	16a#	.	8.ff#J] 8.aa#]	.	8.aaa-J])	.	8.D-J]	.	8.B-J])	.	8.b-J])	.	8.bb-J])	.
.	.	16BB#	.	.	.	16ff#	.	.	.	.	.	.	.	.	.	.	.	.	.
.	.	[16C#JJ	.	.	.	16a#JJ)	.	.	.	.	.	.	.	.	.	.	.	.	.
=7	=7	=7	=7	=7	=7	=7	=7	=7	=7	=7	=7	=7	=7	=7	=7	=7	=7	=7	=7
[8.FF#X~L	.	16C#LL])	.	8.f#X~ 8.an	.	(16anLL	.	8.ff#X~L 8.aan	.	(8.ggg-XL	.	16r	.	(8.AL	.	(8.aL	.	(8.aaL	.
.	.	(16BB#X	.	.	.	16ff#X	.	.	.	.	.	8CL	.	.	.	.	.	.	.
.	.	[16DnJJ	.	.	.	16a	.	.	.	.	.	.	.	.	.	.	.	.	.
8.FF#~_	.	16DLL]	.	[8.f#~ [8.a#X	.	16ff#	.	[8.ff#~ [8.aa#X	.	[8.aaa-X	.	8Dn	.	[8.B-X	.	[8.b-	.	[8.bb-X	.
.	.	16C#X	.	.	.	16a#X	.	.	.	.	.	.	.	.	.	.	.	.	.
.	.	[16FF#XJJ	.	.	.	16ff#	.	.	.	.	.	[16D-Xk	.	.	.	.	.	.	.
8.FF#~J]	[	16FF#LL]	.	8.f#] 8.a#]	[	16a#	.	8.ff#J] 8.aa#]	[	8.aaa-J])	[	8.D-J]	.	8.B-J])	[	8.b-J])	[	8.bb-J])	[
.	.	16BB#	.	.	.	16ff#	.	.	.	.	.	.	.	.	.	.	.	.	.
.	.	[16C#JJ	[	.	.	16a#JJ)	[	.	.	.	.	.	.	.	.	.	.	.	.
=	=	=	=	=	=	=	=	=	=	=	=	=	=	=	=	=	=	=	=
*-	*-	*-	*-	*-	*-	*-	*-	*-	*-	*-	*-	*-	*-	*-	*-	*-	*-	*-	*-
!!!system-decoration: [(s1,s2,s3)]s4[(s5[(s6,s7)]s8,s9,s10)]
